storage/app/icons/phosphoricons/bold/battery-warning-vertical-bold.svg

<svg xmlns="http://www.w3.org/2000/svg" fill="currentColor" viewBox="0 0 256 256"><path d="M116 136v-36a12 12 0 0 1 24 0v36a12 12 0 0 1-24 0m12 24a16 16 0 1 0 16 16 16 16 0 0 0-16-16M104 24h48a12 12 0 0 0 0-24h-48a12 12 0 0 0 0 24m100 36v168a28 28 0 0 1-28 28H80a28 28 0 0 1-28-28V60a28 28 0 0 1 28-28h96a28 28 0 0 1 28 28m-24 0a4 4 0 0 0-4-4H80a4 4 0 0 0-4 4v168a4 4 0 0 0 4 4h96a4 4 0 0 0 4-4Z"/></svg>

<svg xmlns="http://www.w3.org/2000/svg" viewBox="0 0 256 256" fill="currentColor"><path d="M116,136V100a12,12,0,0,1,24,0v36a12,12,0,0,1-24,0Zm12,24a16,16,0,1,0,16,16A16,16,0,0,0,128,160ZM104,24h48a12,12,0,0,0,0-24H104a12,12,0,0,0,0,24ZM204,60V228a28,28,0,0,1-28,28H80a28,28,0,0,1-28-28V60A28,28,0,0,1,80,32h96A28,28,0,0,1,204,60Zm-24,0a4,4,0,0,0-4-4H80a4,4,0,0,0-4,4V228a4,4,0,0,0,4,4h96a4,4,0,0,0,4-4Z"/></svg>
